assets/img/braze_icons/grid-02.svg

<svg fill="none" height="24" viewBox="0 0 24 24" width="24" xmlns="http://www.w3.org/2000/svg"><g fill="#801ed7"><path d="m19.0322 4.02393c-.2834-.02315-.6556-.02393-1.2322-.02393h-1.8c-.5523 0-1-.44771-1-1 0-.55228.4477-1 1-1h1.8385c.5272-.00002.982-.00003 1.3565.03057.3954.0323.7886.10362 1.167.29641.5645.28762 1.0234.74656 1.311 1.31105.1928.37838.2641.7716.2964 1.16694.0306.37458.0306.82934.0306 1.35649v1.83854c0 .55229-.4477 1-1 1s-1-.44771-1-1v-1.8c0-.57655-.0008-.94882-.0239-1.23216-.0222-.27166-.0599-.37238-.0851-.42183-.0959-.18816-.2488-.34114-.437-.43701-.0495-.0252-.1502-.06287-.4218-.08507z"/><path d="m8 2h-1.83854c-.52713-.00002-.98192-.00003-1.35649.03057-.39534.0323-.78856.10362-1.16694.29641-.56449.28762-1.02343.74656-1.31105 1.31105-.19279.37838-.26411.7716-.29641 1.16694-.0306.37457-.03059.82932-.03057 1.35645v1.83858c0 .55229.44772 1 1 1 .55229 0 1-.44771 1-1v-1.8c0-.57655.00078-.94882.02393-1.23216.0222-.27166.05987-.37238.08507-.42183.09587-.18816.24885-.34114.43701-.43701.04945-.0252.15017-.06287.42183-.08507.28334-.02315.65561-.02393 1.23216-.02393h1.8c.55229 0 1-.44771 1-1 0-.55228-.44771-1-1-1z"/><path d="m4 16c0-.5523-.44771-1-1-1-.55228 0-1 .4477-1 1v1.8385c-.00002.5272-.00003.982.03057 1.3565.0323.3954.10362.7886.29641 1.167.28762.5645.74656 1.0234 1.31105 1.311.37838.1928.7716.2641 1.16694.2964.37458.0306.82934.0306 1.35649.0306h1.83854c.55229 0 1-.4477 1-1s-.44771-1-1-1h-1.8c-.57655 0-.94882-.0008-1.23216-.0239-.27166-.0222-.37238-.0599-.42183-.0851-.18816-.0959-.34114-.2488-.43701-.437-.0252-.0495-.06287-.1502-.08507-.4218-.02315-.2834-.02393-.6556-.02393-1.2322z"/><path d="m22 16c0-.5523-.4477-1-1-1s-1 .4477-1 1v1.8c0 .5766-.0008.9488-.0239 1.2322-.0222.2716-.0599.3723-.0851.4218-.0959.1882-.2488.3411-.437.437-.0495.0252-.1502.0629-.4218.0851-.2834.0231-.6556.0239-1.2322.0239h-1.8c-.5523 0-1 .4477-1 1s.4477 1 1 1h1.8385c.5272 0 .982 0 1.3565-.0306.3954-.0323.7886-.1036 1.167-.2964.5645-.2876 1.0234-.7465 1.311-1.311.1928-.3784.2641-.7716.2964-1.167.0306-.3745.0306-.8293.0306-1.3565z"/><path d="m12 6c.5523 0 1 .44772 1 1v4h4c.5523 0 1 .4477 1 1s-.4477 1-1 1h-4v4c0 .5523-.4477 1-1 1s-1-.4477-1-1v-4h-4c-.55228 0-1-.4477-1-1s.44772-1 1-1h4v-4c0-.55228.4477-1 1-1z"/></g></svg>

<svg width="24" height="24" viewBox="0 0 24 24" fill="none" xmlns="http://www.w3.org/2000/svg">
<path d="M19.0322 4.02393C18.7488 4.00078 18.3766 4 17.8 4L16 4C15.4477 4 15 3.55229 15 3C15 2.44772 15.4477 2 16 2H17.8385C18.3657 1.99998 18.8205 1.99997 19.195 2.03057C19.5904 2.06287 19.9836 2.13419 20.362 2.32698C20.9265 2.6146 21.3854 3.07354 21.673 3.63803C21.8658 4.01641 21.9371 4.40963 21.9694 4.80497C22 5.17955 22 5.63431 22 6.16146V8C22 8.55229 21.5523 9 21 9C20.4477 9 20 8.55229 20 8V6.2C20 5.62345 19.9992 5.25118 19.9761 4.96784C19.9539 4.69618 19.9162 4.59546 19.891 4.54601C19.7951 4.35785 19.6422 4.20487 19.454 4.109C19.4045 4.0838 19.3038 4.04613 19.0322 4.02393Z" fill="#801ED7"/>
<path d="M8 2H6.16146C5.63433 1.99998 5.17954 1.99997 4.80497 2.03057C4.40963 2.06287 4.01641 2.13419 3.63803 2.32698C3.07354 2.6146 2.6146 3.07354 2.32698 3.63803C2.13419 4.01641 2.06287 4.40963 2.03057 4.80497C1.99997 5.17954 1.99998 5.63429 2 6.16142V8C2 8.55229 2.44772 9 3 9C3.55229 9 4 8.55229 4 8V6.2C4 5.62345 4.00078 5.25118 4.02393 4.96784C4.04613 4.69618 4.0838 4.59546 4.109 4.54601C4.20487 4.35785 4.35785 4.20487 4.54601 4.109C4.59546 4.0838 4.69618 4.04613 4.96784 4.02393C5.25118 4.00078 5.62345 4 6.2 4H8C8.55229 4 9 3.55229 9 3C9 2.44772 8.55229 2 8 2Z" fill="#801ED7"/>
<path d="M4 16C4 15.4477 3.55229 15 3 15C2.44772 15 2 15.4477 2 16V17.8385C1.99998 18.3657 1.99997 18.8205 2.03057 19.195C2.06287 19.5904 2.13419 19.9836 2.32698 20.362C2.6146 20.9265 3.07354 21.3854 3.63803 21.673C4.01641 21.8658 4.40963 21.9371 4.80497 21.9694C5.17955 22 5.63431 22 6.16146 22H8C8.55229 22 9 21.5523 9 21C9 20.4477 8.55229 20 8 20H6.2C5.62345 20 5.25118 19.9992 4.96784 19.9761C4.69618 19.9539 4.59546 19.9162 4.54601 19.891C4.35785 19.7951 4.20487 19.6422 4.109 19.454C4.0838 19.4045 4.04613 19.3038 4.02393 19.0322C4.00078 18.7488 4 18.3766 4 17.8V16Z" fill="#801ED7"/>
<path d="M22 16C22 15.4477 21.5523 15 21 15C20.4477 15 20 15.4477 20 16V17.8C20 18.3766 19.9992 18.7488 19.9761 19.0322C19.9539 19.3038 19.9162 19.4045 19.891 19.454C19.7951 19.6422 19.6422 19.7951 19.454 19.891C19.4045 19.9162 19.3038 19.9539 19.0322 19.9761C18.7488 19.9992 18.3766 20 17.8 20H16C15.4477 20 15 20.4477 15 21C15 21.5523 15.4477 22 16 22H17.8385C18.3657 22 18.8205 22 19.195 21.9694C19.5904 21.9371 19.9836 21.8658 20.362 21.673C20.9265 21.3854 21.3854 20.9265 21.673 20.362C21.8658 19.9836 21.9371 19.5904 21.9694 19.195C22 18.8205 22 18.3657 22 17.8385V16Z" fill="#801ED7"/>
<path d="M12 6C12.5523 6 13 6.44772 13 7V11H17C17.5523 11 18 11.4477 18 12C18 12.5523 17.5523 13 17 13H13V17C13 17.5523 12.5523 18 12 18C11.4477 18 11 17.5523 11 17V13H7C6.44772 13 6 12.5523 6 12C6 11.4477 6.44772 11 7 11H11V7C11 6.44772 11.4477 6 12 6Z" fill="#801ED7"/>
</svg>
